svg/emoji_u1f518.svg

<svg xmlns="http://www.w3.org/2000/svg" xmlns:xlink="http://www.w3.org/1999/xlink" width="128" height="128"><defs><path id="a" d="M6.26 37.74C.17 51.3-1.49 69.09 2.02 83.44c3.99 16.28 16.87 29.77 32.14 36.19 12.91 5.44 26.79 7.58 40.74 5.93 5.12-.6 10.3-1.84 15.14-3.63 15.16-5.61 27.92-18.19 33.76-33.29 1.89-4.89 3.09-10.43 3.61-15.65 3.7-37.09-19.68-65.65-51.94-70.36-27.71-4.04-57.41 8.8-69.21 35.11z"/><clipPath id="b"><use xlink:href="#a" width="100%" height="100%" overflow="visible"/></clipPath></defs><path d="M6.26 37.74C.17 51.3-1.49 69.09 2.02 83.44c3.99 16.28 16.87 29.77 32.14 36.19 12.91 5.44 26.79 7.58 40.74 5.93 5.12-.6 10.3-1.84 15.14-3.63 15.16-5.61 27.92-18.19 33.76-33.29 1.89-4.89 3.09-10.43 3.61-15.65 3.7-37.09-19.68-65.65-51.94-70.36-27.71-4.04-57.41 8.8-69.21 35.11z" fill="#4886cf"/><path d="M-2.23 82.95c2.67 7.92 6.39 15.31 11 22.21 2.07 3.09 5.78 6.35 9.15 7.88 3.72 1.68 4.14-1.42 5.1-4.17 2.39-6.87 7.69-11.17 11.87-16.82 1.8-2.42 2.59-5.39 4.33-7.86 3.28-4.68 6.74-9.24 10.18-13.8 6.77-8.96 14.21-17.45 22.45-25.1 5.05-4.71 10.82-8.54 16.4-12.59 4.81-3.51 9.29-7.58 14.9-9.98 2.41-1.03 4.96-1.77 7.57-1.99 1.07-.09 1.99-.1 2.88-.79.73-.57.97-1.41.82-2.3-.35-2.13-2.45-3.95-4.02-5.23-2.27-1.88-4.45-4.17-7.21-5.46-3.31-1.54-6.67-3.26-10.12-4.51-1.94-.71-3.61-1.61-5.64-2.12-2.81-.71-5.67-1.03-8.54-1.46C67.91-2.8 56.4-3 45.53-.47c-11.11 2.6-21.47 9.56-29.76 17.21C7.38 24.48 1.75 34.97-2.44 45.52c-1.47 3.7-3.34 7.61-3.57 11.64-.17 3.13.04 6.31.02 9.45-.04 4.84 1.76 10.04 3.22 14.67.17.56.35 1.11.54 1.67z" clip-path="url(#b)" fill="#2987f7"/><path d="M15.028 43.494C7.265 60.18 7.87 83.088 19.76 97.591c5.465 6.651 12.71 11.75 20.573 15.196 20.636 9.024 47.318 4.948 62.944-11.877 14.767-15.903 19.185-42.497 7.497-61.404-3.42-5.541-8.721-11.915-14.11-15.651-6.299-4.342-15.21-8.128-22.808-9.189-23.552-3.319-48.795 7.22-58.83 28.828z" fill="#dbe8f0" stroke-width="1.262"/><path d="M27.14 48.798c-8.948 18.876-1.413 45.542 19.74 53.175 24.115 8.712 50.898-2.669 55.666-28.943 2.885-15.913-6.337-34.907-20.308-42.383-15.129-8.084-35.417-3.316-47.406 7.653-3.297 3.022-5.848 6.593-7.692 10.498z" fill="#5b99c2" stroke-width="1.962"/></svg>

<?xml version="1.0" encoding="UTF-8" standalone="no"?>
<!DOCTYPE svg PUBLIC "-//W3C//DTD SVG 1.1//EN" "http://www.w3.org/Graphics/SVG/1.1/DTD/svg11.dtd">
<svg width="100%" height="100%" viewBox="0 0 128 128" version="1.1" xmlns="http://www.w3.org/2000/svg" xmlns:xlink="http://www.w3.org/1999/xlink" xml:space="preserve" xmlns:serif="http://www.serif.com/" style="fill-rule:evenodd;clip-rule:evenodd;stroke-linejoin:round;stroke-miterlimit:2;">
    <path d="M6.26,37.74C0.17,51.3 -1.49,69.09 2.02,83.44C6.01,99.72 18.89,113.21 34.16,119.63C47.07,125.07 60.95,127.21 74.9,125.56C80.02,124.96 85.2,123.72 90.04,121.93C105.2,116.32 117.96,103.74 123.8,88.64C125.69,83.75 126.89,78.21 127.41,72.99C131.11,35.9 107.73,7.34 75.47,2.63C47.76,-1.41 18.06,11.43 6.26,37.74Z" style="fill:rgb(25,108,162);fill-rule:nonzero;"/>
    <path d="M15.028,43.494C7.265,60.18 7.87,83.088 19.76,97.591C25.225,104.242 32.47,109.341 40.333,112.787C60.969,121.811 87.651,117.735 103.277,100.91C118.044,85.007 122.462,58.413 110.774,39.506C107.354,33.965 102.053,27.591 96.664,23.855C90.365,19.513 81.454,15.727 73.856,14.666C50.304,11.347 25.061,21.886 15.026,43.494L15.028,43.494Z" style="fill:rgb(225,245,254);fill-rule:nonzero;"/>
    <g transform="matrix(0.757483,0,0,0.757483,16.0846,14.2116)">
        <path d="M27.14,48.798C18.192,67.674 25.727,94.34 46.88,101.973C70.995,110.685 97.778,99.304 102.546,73.03C105.431,57.117 96.209,38.123 82.238,30.647C67.109,22.563 46.821,27.331 34.832,38.3C31.535,41.322 28.984,44.893 27.14,48.798Z" style="fill:rgb(25,108,162);fill-rule:nonzero;"/>
    </g>
</svg>
